X: 121808
T: Lasses of Saint Barry's
C: Gearrchail\'i Naomh Barra
S: B.Breathnach:"Ceol Rince na hEireann" IV/196
Z: B.Black
L: 1/8
M: 4/4
R: reel
K: Ador
ge|dBBA G2 GD|EGDG EGDG|dBBA G2 GD|EGAc BA A2 :|
dBBe dBBe|dBBe defg|dBBe defg|(3efg dB BA A2|
dBBe dBBe|dBBe defg|egde BdAB|DEGc Bgfe ||
